X:1
T:Foresters -- Hornpipe
R:hornpipe
B:Cole's 1000 Fiddle Tunes
Z:Bob Puckette <bpuckette:msn.com> 2003-3-8
M:2/4
L:1/16
K:D
vfg|a^gaf dfba|a^gaf .d2(cd)|"0"eAfA "0"eAfA|"0"edcB .A2(fg)|
a^gaf dfba|a^gaf .d2(cd)|BGFG Adc"4"e|d2f2d2:|
|:vcd|"0"edcB AGEG|FAdf .a2(fa)|g"0"eBg fdAf|edcB .A2(cd)|
edcB AGEG|FAdf afba|gfed cABc|d2f2d2:|
